src/assets/images/icons/fund-greenseed-black.svg

<svg xmlns="http://www.w3.org/2000/svg" viewBox="0 0 304.5 336.01"><defs><style>.cls-1{fill:#231f20;}</style></defs><title>fund-greenseed-black</title><g id="Layer_2" data-name="Layer 2"><g id="Layer_1-2" data-name="Layer 1"><path class="cls-1" d="M151.43,234.7,141.69,226C139,223.6,75.1,166,75.1,106.8c0-24.7,13-50.86,37.54-75.67A219.33,219.33,0,0,1,149.89,1L151.43,0,153,1a219,219,0,0,1,37.24,30.18c24.56,24.81,37.54,51,37.54,75.67,0,59.29-63.87,116.8-66.58,119.22Zm0-227.7C141,13.85,81,55.35,81,106.8c0,56.61,62,112.44,64.6,114.79l5.8,5.17,5.8-5.17c2.64-2.35,64.61-58.13,64.61-114.79C221.83,55.31,161.91,13.85,151.43,7Z"/><path class="cls-1" d="M151.43,219l-2-1.75C146.9,215,86.79,160.85,86.79,106.8c0-22.61,11-45.57,31.71-66.4A165.09,165.09,0,0,1,150,15.61l1.47-.84,1.48.84A165.09,165.09,0,0,1,184.37,40.4c20.75,20.83,31.71,43.79,31.71,66.4,0,54.05-60.11,108.21-62.67,110.49Zm0-197.39c-9.24,5.74-58.72,38.7-58.72,85.15,0,46.05,48.27,94.33,58.71,104.23,10.45-9.9,58.72-58.18,58.72-104.23C210.15,60.3,160.68,27.39,151.44,21.65Z"/><rect class="cls-1" x="148.47" y="177.35" width="5.93" height="158.66"/><rect class="cls-1" x="148.47" y="53.66" width="5.93" height="140.34"/><rect class="cls-1" x="147.54" y="147.08" width="26.42" height="5.93" transform="translate(-59.01 157.61) rotate(-45)"/><rect class="cls-1" x="137.8" y="151.64" width="5.93" height="30.16" transform="translate(-76.66 148.38) rotate(-45)"/><rect class="cls-1" x="147.05" y="101.35" width="30.7" height="5.93" transform="translate(-26.62 143.38) rotate(-44.39)"/><rect class="cls-1" x="139.5" y="111.31" width="5.93" height="25.42" transform="translate(-45.96 137.09) rotate(-45.01)"/><rect class="cls-1" x="137.8" y="65.54" width="5.93" height="30.16" transform="translate(-15.78 123.15) rotate(-45)"/><path class="cls-1" d="M86,335.34H48.7V298H86Zm-31.4-5.93H80.1V304H54.63Z"/><rect class="cls-1" x="45.17" y="313.72" width="44.4" height="5.93" transform="translate(-204.2 140.39) rotate(-45)"/><path class="cls-1" d="M255.85,335.34H218.52V298h37.33Zm-31.4-5.93h25.47V304H224.45Z"/><rect class="cls-1" x="214.96" y="313.71" width="44.4" height="5.93" transform="translate(-154.45 260.34) rotate(-44.98)"/><path class="cls-1" d="M304.5,335.34H267.18V298H304.5v37.32Zm-31.39-5.93h25.46V304H273.11Z"/><rect class="cls-1" x="263.63" y="313.72" width="44.39" height="5.93" transform="translate(-140.21 294.8) rotate(-44.99)"/><path class="cls-1" d="M86,285.22H48.7V247.9H86Zm-31.4-5.93H80.1V253.83H54.63Z"/><rect class="cls-1" x="45.17" y="263.6" width="44.4" height="5.93" transform="translate(-168.75 125.71) rotate(-45)"/><path class="cls-1" d="M205.54,285.22H168.22V247.9h37.32Zm-31.39-5.93h25.46V253.83H174.15Z"/><rect class="cls-1" x="164.67" y="263.59" width="44.4" height="5.93" transform="translate(-133.74 210.16) rotate(-44.99)"/><path class="cls-1" d="M134.73,285.22H97.41V247.9h37.32Zm-31.39-5.93H128.8V253.83H103.34Z"/><rect class="cls-1" x="113.1" y="244.39" width="5.93" height="44.4" transform="translate(-154.51 160.13) rotate(-45)"/><path class="cls-1" d="M86,235.88H48.7V198.56H86ZM54.63,230H80.1V204.48H54.63Z"/><rect class="cls-1" x="64.4" y="195.04" width="5.93" height="44.4" transform="translate(-133.89 111.28) rotate(-45)"/><path class="cls-1" d="M255.85,285.22H218.52V247.9h37.33Zm-31.4-5.93h25.47V253.83H224.45Z"/><rect class="cls-1" x="235.27" y="244.4" width="5.93" height="44.4" transform="translate(-118.73 246.52) rotate(-45)"/><path class="cls-1" d="M205.54,335.34H168.22V298h37.32Zm-31.39-5.93h25.46V304H174.15Z"/><rect class="cls-1" x="183.92" y="294.52" width="5.93" height="44.4" transform="translate(-169.21 224.88) rotate(-45)"/><path class="cls-1" d="M255.85,235.88H218.52V198.56h37.33ZM224.45,230h25.47V204.48H224.45Z"/><rect class="cls-1" x="234.23" y="195.05" width="5.93" height="44.4" transform="translate(-84.15 231.37) rotate(-45)"/><path class="cls-1" d="M134.73,335.34H97.41V298h37.32Zm-31.39-5.93H128.8V304H103.34Z"/><rect class="cls-1" x="113.13" y="294.49" width="5.93" height="44.4" transform="translate(-189.93 174.85) rotate(-45)"/><path class="cls-1" d="M37.33,335.34H0V298H37.33Zm-31.4-5.93H31.4V304H5.93Z"/><rect class="cls-1" x="15.7" y="294.48" width="5.93" height="44.4" transform="translate(-218.46 105.95) rotate(-45)"/><rect class="cls-1" x="148.47" y="3.47" width="5.93" height="18.38"/></g></g></svg>

<?xml version="1.0" encoding="utf-8"?>
<!-- Generator: Adobe Illustrator 22.1.0, SVG Export Plug-In . SVG Version: 6.00 Build 0)  -->
<svg version="1.1" id="Layer_1" xmlns="http://www.w3.org/2000/svg" xmlns:xlink="http://www.w3.org/1999/xlink" x="0px" y="0px"
	 viewBox="0 0 304.5 336" style="enable-background:new 0 0 304.5 336;" xml:space="preserve">
<style type="text/css">
	.st0{fill:#808080;}
</style>
<title>fund-greenseed-black</title>
<g id="Layer_2_1_">
	<g id="Layer_1-2">
		<path class="st0" d="M151.4,234.7l-9.7-8.7c-2.7-2.4-66.6-60-66.6-119.2c0-24.7,13-50.9,37.5-75.7C123.9,19.8,136.4,9.7,149.9,1
			l1.5-1l1.6,1c13.5,8.7,26,18.8,37.2,30.2c24.6,24.8,37.5,51,37.5,75.7c0,59.3-63.9,116.8-66.6,119.2L151.4,234.7z M151.4,7
			C141,13.9,81,55.3,81,106.8c0,56.6,62,112.4,64.6,114.8l5.8,5.2l5.8-5.2c2.6-2.4,64.6-58.1,64.6-114.8
			C221.8,55.3,161.9,13.9,151.4,7z"/>
		<path class="st0" d="M151.4,219l-2-1.8c-2.5-2.2-62.6-56.4-62.6-110.4c0-22.6,11-45.6,31.7-66.4c9.5-9.5,20-17.8,31.5-24.8
			l1.5-0.8l1.5,0.8c11.4,7,22,15.3,31.4,24.8c20.8,20.8,31.7,43.8,31.7,66.4c0,54.1-60.1,108.2-62.7,110.5L151.4,219z M151.4,21.6
			c-9.2,5.7-58.7,38.7-58.7,85.2c0,46,48.3,94.3,58.7,104.2c10.4-9.9,58.7-58.2,58.7-104.2C210.1,60.3,160.7,27.4,151.4,21.6
			L151.4,21.6z"/>
		<rect x="148.5" y="177.4" class="st0" width="5.9" height="158.7"/>
		<rect x="148.5" y="53.7" class="st0" width="5.9" height="140.3"/>
		
			<rect x="147.5" y="147.1" transform="matrix(0.7071 -0.7071 0.7071 0.7071 -59.0105 157.6169)" class="st0" width="26.4" height="5.9"/>
		
			<rect x="137.8" y="151.7" transform="matrix(0.7071 -0.7071 0.7071 0.7071 -76.669 148.3706)" class="st0" width="5.9" height="30.2"/>
		
			<rect x="147.1" y="101.4" transform="matrix(0.7146 -0.6995 0.6995 0.7146 -26.6238 143.3797)" class="st0" width="30.7" height="5.9"/>
		
			<rect x="139.5" y="111.3" transform="matrix(0.707 -0.7072 0.7072 0.707 -45.9604 137.0982)" class="st0" width="5.9" height="25.4"/>
		
			<rect x="137.8" y="65.5" transform="matrix(0.7071 -0.7071 0.7071 0.7071 -15.7792 123.1477)" class="st0" width="5.9" height="30.2"/>
		<path class="st0" d="M86,335.3H48.7V298H86V335.3z M54.6,329.4h25.5V304H54.6L54.6,329.4z"/>
		
			<rect x="45.2" y="313.7" transform="matrix(0.7071 -0.7071 0.7071 0.7071 -204.1966 140.3904)" class="st0" width="44.4" height="5.9"/>
		<path class="st0" d="M255.9,335.3h-37.3V298h37.3V335.3z M224.5,329.4h25.5V304h-25.5L224.5,329.4z"/>
		
			<rect x="215" y="313.7" transform="matrix(0.7074 -0.7069 0.7069 0.7074 -154.4628 260.3142)" class="st0" width="44.4" height="5.9"/>
		<path class="st0" d="M304.5,335.3h-37.3V298h37.3V335.3L304.5,335.3z M273.1,329.4h25.5V304h-25.5V329.4z"/>
		
			<rect x="263.6" y="313.7" transform="matrix(0.7072 -0.707 0.707 0.7072 -140.2176 294.7925)" class="st0" width="44.4" height="5.9"/>
		<path class="st0" d="M86,285.2H48.7v-37.3H86V285.2z M54.6,279.3h25.5v-25.5H54.6L54.6,279.3z"/>
		
			<rect x="45.2" y="263.6" transform="matrix(0.7071 -0.7071 0.7071 0.7071 -168.7534 125.7175)" class="st0" width="44.4" height="5.9"/>
		<path class="st0" d="M205.5,285.2h-37.3v-37.3h37.3L205.5,285.2z M174.1,279.3h25.5v-25.5h-25.5V279.3z"/>
		
			<rect x="164.7" y="263.6" transform="matrix(0.7072 -0.707 0.707 0.7072 -133.7448 210.1553)" class="st0" width="44.4" height="5.9"/>
		<path class="st0" d="M134.7,285.2H97.4v-37.3h37.3L134.7,285.2z M103.3,279.3h25.5v-25.5h-25.5V279.3z"/>
		
			<rect x="113.1" y="244.4" transform="matrix(0.7071 -0.7071 0.7071 0.7071 -154.496 160.1482)" class="st0" width="5.9" height="44.4"/>
		<path class="st0" d="M86,235.9H48.7v-37.3H86V235.9z M54.6,230h25.5v-25.5H54.6V230z"/>
		
			<rect x="64.4" y="195.1" transform="matrix(0.7071 -0.7071 0.7071 0.7071 -133.8962 111.2613)" class="st0" width="5.9" height="44.4"/>
		<path class="st0" d="M255.9,285.2h-37.3v-37.3h37.3V285.2z M224.5,279.3h25.5v-25.5h-25.5L224.5,279.3z"/>
		
			<rect x="235.3" y="244.4" transform="matrix(0.7071 -0.7071 0.7071 0.7071 -118.7189 246.5413)" class="st0" width="5.9" height="44.4"/>
		<path class="st0" d="M205.5,335.3h-37.3V298h37.3L205.5,335.3z M174.1,329.4h25.5V304h-25.5V329.4z"/>
		
			<rect x="183.9" y="294.5" transform="matrix(0.7071 -0.7071 0.7071 0.7071 -169.1921 224.9085)" class="st0" width="5.9" height="44.4"/>
		<path class="st0" d="M255.9,235.9h-37.3v-37.3h37.3V235.9z M224.4,230h25.5v-25.5h-25.5V230z"/>
		
			<rect x="234.2" y="195.1" transform="matrix(0.7071 -0.7071 0.7071 0.7071 -84.1591 231.3554)" class="st0" width="5.9" height="44.4"/>
		<path class="st0" d="M134.7,335.3H97.4V298h37.3L134.7,335.3z M103.3,329.4h25.5V304h-25.5V329.4z"/>
		
			<rect x="113.1" y="294.5" transform="matrix(0.7071 -0.7071 0.7071 0.7071 -189.9316 174.8487)" class="st0" width="5.9" height="44.4"/>
		<path class="st0" d="M37.3,335.3H0V298h37.3V335.3z M5.9,329.4h25.5V304H5.9L5.9,329.4z"/>
		
			<rect x="15.7" y="294.5" transform="matrix(0.7071 -0.7071 0.7071 0.7071 -218.4587 105.9509)" class="st0" width="5.9" height="44.4"/>
		<rect x="148.5" y="3.5" class="st0" width="5.9" height="18.4"/>
	</g>
</g>
</svg>
